X:676
%%etbk:tnset id:419,pos:2,rep:3x,ant:
%%etbk:wsite https://thesession.org/tunes/1050
%%etbk:video src:ytube,cde:ski4OPUITmk,desc:
%%etbk:video src:ytube,cde:,desc:
%%etbk:color #ffffcc
%%etbk:pldat 2016-09-09T19:16,2016-08-06T12:57,2016-04-02T15:18,2016-03-30T17:46,2016-03-30T17:24,2015-12-15T16:44,2015-12-13T14:02,2015-06-05T17:02,2015-05-20T16:52,2015-04-27T19:26,2015-04-26T20:37,2015-04-08T16:19,2015-04-07T18:27,2015-04-07T18:16,2015-04-06T12:08,2015-04-03T14:48,2015-04-02T16:24
T: The Maple Leaf
Z: Piano Box Version by Martin Fleischmann
H: Created 2015-04-01 /  Last Modified 2016-09-17
R: reel
M: 4/4
L: 1/8
K: Emin
|:!1!E (3EEE F GE (3EEE|!4!B2AB !3!AGED|!1!EDEF !3!G2!2!G!3!A|!4!B2d!4!B !3!A!2!G!1!E!2!D|
!1!E (3EEE F GE (3EEE|!4!B2AB AGE!4!d|!3!B!5!eed !3!B!1!A (3AAA|!4!B2AB AGED:|
|:!3!B!5!e!3!ed ef!5!ge|!1!Beed ed!1!B!1!A|!1!Beed ef!5!ge|!5!a2!3!e!5!g !4!fed!1!A|
Beed efg2|Beed edB2|a2eg fed!1!A|!4!B2AB AGED:|


